_site/images/logo-dark.svg

<?xml version="1.0" encoding="UTF-8"?>
<svg width="150px" height="32px" viewBox="0 0 150 32" version="1.1" xmlns="http://www.w3.org/2000/svg" xmlns:xlink="http://www.w3.org/1999/xlink">
    <!-- Generator: Sketch 43.2 (39069) - http://www.bohemiancoding.com/sketch -->
    <title>logo-dark</title>
    <desc>Created with Sketch.</desc>
    <defs></defs>
    <g id="Symbols" stroke="none" stroke-width="1" fill="none" fill-rule="evenodd">
        <g id="logo-dark" fill="#111111">
            <path d="M53.6715285,15.1247844 C53.6313435,17.3133985 53.4729,19.1834388 52.1422043,21.0546291 C50.6714354,23.1040828 48.4670041,24 45.962908,24 C41.2555289,24 37.9764374,20.7970098 37.9764374,16.079356 C37.9764374,11.2041403 41.2750473,8 46.1018331,8 C49.1822961,8 51.5658374,9.39390454 52.8574963,12.1989649 L49.1616296,13.7515814 C48.6254476,12.3185739 47.4933803,11.3628522 45.9238712,11.3628522 C43.3612199,11.3628522 42.0293761,13.8102358 42.0293761,16.1000575 C42.0293761,18.4278321 43.4197751,20.7970098 45.9835746,20.7970098 C47.6713422,20.7970098 48.961853,19.920644 49.1214446,18.1886141 L45.9445378,18.1886141 L45.9445378,15.1247844 L53.6715285,15.1247844 Z M68.6434053,23.5018976 L63.7959529,23.5018976 L60.1207527,17.7319149 L60.0805678,17.7319149 L60.0805678,23.5018976 L56.1872208,23.5018976 L56.1872208,8.49672225 L62.008297,8.49672225 C64.9682051,8.49672225 67.2139694,9.91017826 67.2139694,13.1143186 C67.2139694,15.1844738 66.0612356,16.9751581 63.934878,17.3535365 L68.6434053,23.5018976 Z M74.5423255,20.8953422 L73.5089983,23.5025877 L69.3779861,23.5025877 L75.1382108,8.49741231 L79.390926,8.49741231 L85.0328922,23.5025877 L80.8800652,23.5025877 L79.9064415,20.8953422 L74.5423255,20.8953422 Z M86.9179105,8.49752731 L92.8779118,8.49752731 C96.0972999,8.49752731 98.3212495,9.99033928 98.3212495,13.4336975 C98.3212495,16.9759632 96.4141869,18.5274296 93.0168369,18.5274296 L90.8112575,18.5274296 L90.8112575,23.5027027 L86.9179105,23.5027027 L86.9179105,8.49752731 Z M110.077412,14.2880966 L110.077412,8.49741231 L113.971907,8.49741231 L113.971907,23.5025877 L110.077412,23.5025877 L110.077412,17.3530765 L104.454965,17.3530765 L104.454965,23.5025877 L100.561618,23.5025877 L100.561618,8.49741231 L104.454965,8.49741231 L104.454965,14.2880966 L110.077412,14.2880966 Z M117.294054,23.5017826 L117.294054,8.49660725 L121.189697,8.49660725 L121.189697,23.5017826 L117.294054,23.5017826 Z M135.198513,13.5321449 C134.404,12.4568143 133.113489,11.880621 131.780497,11.880621 C129.396956,11.880621 127.78841,13.7115584 127.78841,16.040483 C127.78841,18.4073606 129.417622,20.119839 131.841348,20.119839 C133.113489,20.119839 134.384481,19.5022427 135.198513,18.5281196 L135.198513,23.2032202 C133.906855,23.6023002 132.974564,23.9013226 131.760979,23.9013226 C129.674806,23.9013226 127.688521,23.1043128 126.138531,21.6920069 C124.490948,20.1991949 123.735471,18.2497987 123.735471,16.0197815 C123.735471,13.9703278 124.509318,12.00023 125.94105,10.5281196 C127.410671,9.0146061 129.535881,8.09913744 131.641572,8.09913744 C132.893046,8.09913744 134.04578,8.3786084 135.198513,8.85589419 L135.198513,13.5321449 Z M146.389561,12.3584819 C145.674269,11.760437 144.760349,11.3636573 143.807391,11.3636573 C143.092099,11.3636573 142.137994,11.7811386 142.137994,12.6172513 C142.137994,13.4924669 143.19084,13.8305923 143.867095,14.0502588 L144.859089,14.3481311 C146.945262,14.9657274 148.554956,16.0203565 148.554956,18.4481886 C148.554956,19.9410006 148.197884,21.4729155 147.004965,22.4884416 C145.833861,23.4832662 144.263204,23.9007476 142.753398,23.9007476 C140.865854,23.9007476 139.019642,23.2635998 137.48917,22.1894192 L139.158567,19.0439333 C140.132191,19.9007476 141.284925,20.5965497 142.614473,20.5965497 C143.529541,20.5965497 144.502017,20.1399655 144.502017,19.0853364 C144.502017,17.9893042 142.972693,17.6120759 142.137994,17.372858 C139.694749,16.6770558 138.085055,16.039908 138.085055,13.1347901 C138.085055,10.0893617 140.25045,8.09971248 143.251691,8.09971248 C144.760349,8.09971248 146.607708,8.57699827 147.939552,9.33375503 L146.389561,12.3584819 Z M0.9994,8.23105233 L5.83422285,8.23105233 L8.73442767,13.6468085 L11.6357806,8.23105233 L16.4706035,8.23105233 L10.7505637,17.5007476 L10.7505637,23.7687177 L6.71829162,23.7687177 L6.71829162,17.5007476 L0.9994,8.23105233 Z M17.5039306,8.23105233 L22.3387535,8.23105233 L25.2389583,13.6468085 L28.1403113,8.23105233 L32.973986,8.23105233 L27.2550943,17.5007476 L27.2550943,23.7687177 L23.2216741,23.7687177 L23.2216741,17.5007476 L17.5039306,8.23105233 Z M60.0805678,15.2235768 L60.4583063,15.2235768 C61.7304468,15.2235768 63.1610308,14.9855089 63.1610308,13.3535365 C63.1610308,11.7215641 61.7304468,11.4823462 60.4583063,11.4823462 L60.0805678,11.4823462 L60.0805678,15.2235768 Z M77.2645684,13.1345601 L77.2243835,13.1345601 L75.6158376,17.9097182 L78.8547441,17.9097182 L77.2645684,13.1345601 Z M90.8112575,15.3830937 L91.4668462,15.3830937 C92.8779118,15.3830937 94.269459,15.3830937 94.269459,13.5521564 C94.269459,11.6625647 92.9778001,11.6418631 91.4668462,11.6418631 L90.8112575,11.6418631 L90.8112575,15.3830937 Z" id="Combined-Shape"></path>
        </g>
    </g>
</svg>

<?xml version="1.0" encoding="utf-8"?>
<!-- Generator: Adobe Illustrator 22.0.1, SVG Export Plug-In . SVG Version: 6.00 Build 0)  -->
<svg version="1.1" id="Layer_1" xmlns="http://www.w3.org/2000/svg" xmlns:xlink="http://www.w3.org/1999/xlink" x="0px" y="0px"
	 viewBox="0 0 150 32" style="enable-background:new 0 0 150 32;" xml:space="preserve">
<style type="text/css">
	.st0{fill:#111111;}
</style>
<path id="Combined-Shape" class="st0" d="M53.7,15.1c0,2.2-0.2,4.1-1.5,5.9c-1.5,2-3.7,2.9-6.2,2.9c-4.7,0-8-3.2-8-7.9
	c0-4.9,3.3-8.1,8.1-8.1c3.1,0,5.5,1.4,6.8,4.2l-3.7,1.6c-0.5-1.4-1.7-2.4-3.2-2.4c-2.6,0-3.9,2.4-3.9,4.7c0,2.3,1.4,4.7,4,4.7
	c1.7,0,3-0.9,3.1-2.6h-3.2v-3.1H53.7z M68.6,23.5h-4.8l-3.7-5.8h0v5.8h-3.9v-15H62c3,0,5.2,1.4,5.2,4.6c0,2.1-1.2,3.9-3.3,4.2
	L68.6,23.5z M74.5,20.9l-1,2.6h-4.1l5.8-15h4.3l5.6,15h-4.2l-1-2.6H74.5z M86.9,8.5h6c3.2,0,5.4,1.5,5.4,4.9c0,3.5-1.9,5.1-5.3,5.1
	h-2.2v5h-3.9V8.5z M110.1,14.3V8.5h3.9v15h-3.9v-6.1h-5.6v6.1h-3.9v-15h3.9v5.8H110.1z M117.3,23.5v-15h3.9v15H117.3z M135.2,13.5
	c-0.8-1.1-2.1-1.7-3.4-1.7c-2.4,0-4,1.8-4,4.2c0,2.4,1.6,4.1,4.1,4.1c1.3,0,2.5-0.6,3.4-1.6v4.7c-1.3,0.4-2.2,0.7-3.4,0.7
	c-2.1,0-4.1-0.8-5.6-2.2c-1.6-1.5-2.4-3.4-2.4-5.7c0-2,0.8-4,2.2-5.5c1.5-1.5,3.6-2.4,5.7-2.4c1.3,0,2.4,0.3,3.6,0.8V13.5z
	 M146.4,12.4c-0.7-0.6-1.6-1-2.6-1c-0.7,0-1.7,0.4-1.7,1.3c0,0.9,1.1,1.2,1.7,1.4l1,0.3c2.1,0.6,3.7,1.7,3.7,4.1c0,1.5-0.4,3-1.6,4
	c-1.2,1-2.7,1.4-4.3,1.4c-1.9,0-3.7-0.6-5.3-1.7l1.7-3.1c1,0.9,2.1,1.6,3.5,1.6c0.9,0,1.9-0.5,1.9-1.5c0-1.1-1.5-1.5-2.4-1.7
	c-2.4-0.7-4.1-1.3-4.1-4.2c0-3,2.2-5,5.2-5c1.5,0,3.4,0.5,4.7,1.2L146.4,12.4z M1,8.2h4.8l2.9,5.4l2.9-5.4h4.8l-5.7,9.3v6.3h-4v-6.3
	L1,8.2z M17.5,8.2h4.8l2.9,5.4l2.9-5.4H33l-5.7,9.3v6.3h-4v-6.3L17.5,8.2z M60.1,15.2h0.4c1.3,0,2.7-0.2,2.7-1.9s-1.4-1.9-2.7-1.9
	h-0.4V15.2z M77.3,13.1L77.3,13.1l-1.6,4.8h3.2L77.3,13.1z M90.8,15.4h0.7c1.4,0,2.8,0,2.8-1.8c0-1.9-1.3-1.9-2.8-1.9h-0.7V15.4z"/>
</svg>
